Carto/POI/SVG/cemetry_solid_24px.svg

<svg width="24" height="24" viewBox="0 0 24 24" fill="none" xmlns="http://www.w3.org/2000/svg">
<path d="M19 4.00001C19 3.73479 18.8946 3.48044 18.7071 3.2929C18.5196 3.10537 18.2652 3.00001 18 3.00001H15.5V2.50001C13.2148 1.82999 10.7852 1.82999 8.5 2.50001V3.00001H6C5.73478 3.00001 5.48043 3.10537 5.29289 3.2929C5.10536 3.48044 5 3.73479 5 4.00001L4.5 18H19.5L19 4.00001ZM16 12H8V10H16V12ZM16 8.00001H8V6.00001H16V8.00001ZM22 20V22H2V20H22Z" fill="#0F1621"/>
</svg>

<svg xmlns="http://www.w3.org/2000/svg" width="24" height="24" viewBox="0 0 24 24"><path d="M24,24H0V0H24Z" style="fill:none"/><path d="M19,4a1,1,0,0,0-1-1H15.5V2.5a12.44,12.44,0,0,0-7,0V3H6A1,1,0,0,0,5,4L4.5,18h15Zm-3,8H8V10h8Zm0-4H8V6h8Zm6,12v2H2V20Z"/></svg>
